src/app/home/girl.svg

<?xml version="1.0" encoding="iso-8859-1"?>
<!-- Generator: Adobe Illustrator 19.0.0, SVG Export Plug-In . SVG Version: 6.00 Build 0)  -->
<svg version="1.1" id="Layer_1" xmlns="http://www.w3.org/2000/svg" xmlns:xlink="http://www.w3.org/1999/xlink" x="0px" y="0px"
	 viewBox="0 0 512 512" style="enable-background:new 0 0 512 512;" xml:space="preserve">
<g>
	<g>
		<path d="M384.977,276.115c-0.33-0.902-33.149-90.694-47.603-132.749c-9.325-27.136-24.962-40.895-46.474-40.895
			c-29.934,0-39.899,0-69.8,0c-21.512,0-37.149,13.759-46.474,40.895c-14.452,42.055-47.272,131.848-47.603,132.749
			c-3.812,10.425,1.549,21.968,11.975,25.779c10.425,3.812,21.968-1.551,25.779-11.975c0.273-0.748,22.776-62.314,38.824-107.645
			c1.435,4.712,4.37,8.758,8.233,11.627l0.048,29.451l-34.573,87.18c-1.885,4.755,0.875,10.067,5.834,11.259
			c5.161,1.24,11.996,2.93,19.41,4.782V487.88c0,13.321,10.799,24.12,24.12,24.12c13.321,0,24.12-10.799,24.12-24.12V337.975
			c3.464,0.307,6.948,0.305,10.413-0.006V487.88c0,13.321,10.799,24.12,24.12,24.12c13.321,0,24.12-10.799,24.12-24.12V326.551
			c7.407-1.852,14.236-3.538,19.398-4.776c4.924-1.18,7.731-6.492,5.84-11.261l-34.567-87.163l0.048-29.451
			c3.864-2.868,6.797-6.914,8.233-11.627c16.047,45.331,38.551,106.897,38.824,107.645c3.812,10.426,15.354,15.787,25.779,11.975
			C383.428,298.083,388.789,286.54,384.977,276.115z"/>
	</g>
</g>
<g>
	<g>
		<circle cx="256" cy="43.898" r="43.898"/>
	</g>
</g>
<g>
</g>
<g>
</g>
<g>
</g>
<g>
</g>
<g>
</g>
<g>
</g>
<g>
</g>
<g>
</g>
<g>
</g>
<g>
</g>
<g>
</g>
<g>
</g>
<g>
</g>
<g>
</g>
<g>
</g>
</svg>

<svg width="512" height="512" viewBox="0 0 512 512" fill="none" xmlns="http://www.w3.org/2000/svg">
<path d="M384.977 276.115C384.647 275.213 351.828 185.421 337.374 143.366C328.049 116.23 312.412 102.471 290.9 102.471C260.966 102.471 251.001 102.471 221.1 102.471C199.588 102.471 183.951 116.23 174.626 143.366C160.174 185.421 127.354 275.214 127.023 276.115C123.211 286.54 128.572 298.083 138.998 301.894C149.423 305.706 160.966 300.343 164.777 289.919C165.05 289.171 187.553 227.605 203.601 182.274C205.036 186.986 207.971 191.032 211.834 193.901L211.882 223.352L177.309 310.532C175.424 315.287 178.184 320.599 183.143 321.791C188.304 323.031 195.139 324.721 202.553 326.573V487.88C202.553 501.201 213.352 512 226.673 512C239.994 512 250.793 501.201 250.793 487.88V337.975C254.257 338.282 257.741 338.28 261.206 337.969V487.88C261.206 501.201 272.005 512 285.326 512C298.647 512 309.446 501.201 309.446 487.88V326.551C316.853 324.699 323.682 323.013 328.844 321.775C333.768 320.595 336.575 315.283 334.684 310.514L300.117 223.351L300.165 193.9C304.029 191.032 306.962 186.986 308.398 182.273C324.445 227.604 346.949 289.17 347.222 289.918C351.034 300.344 362.576 305.705 373.001 301.893C383.428 298.083 388.789 286.54 384.977 276.115Z" fill="#8F8F8F"/>
<path d="M256 87.796C280.244 87.796 299.898 68.1422 299.898 43.898C299.898 19.6538 280.244 0 256 0C231.756 0 212.102 19.6538 212.102 43.898C212.102 68.1422 231.756 87.796 256 87.796Z" fill="#8F8F8F"/>
</svg>
